printrun/assets/toolbar/exit_w.svg

<?xml version="1.0" encoding="UTF-8"?>
<svg id="icon" xmlns="http://www.w3.org/2000/svg" width="128" height="128" viewBox="0 0 128 128">
  <path d="M49.232,33.114v-13.306c0-3.006,2.46-5.466,5.466-5.466h13.324c2.34,0,4.427,1.715,4.643,4.045.247,2.668-1.847,4.899-4.452,4.899h-9.037c-.552,0-1,.448-1,1v16c0,.425-.498.657-.823.382l-7.589-6.409c-.338-.285-.532-.704-.532-1.146Z" style="fill: #dfe2e5;"/>
  <path d="M73.321,109.62c-.216,2.327-2.299,4.042-4.636,4.042h-13.987c-3.006,0-5.466-2.46-5.466-5.466v-13.173c0-.438.192-.855.525-1.14l7.594-6.497c.324-.278.825-.047.825.38v15.951c0,.552.448,1,1,1h9.693c2.617,0,4.7,2.233,4.452,4.903Z" style="fill: #dfe2e5;"/>
  <path d="M68.909,63.913c0,.944-.385,1.881-1.163,2.564-5.775,5.07-23.165,20.184-23.175,20.194-.484.434-1.004.566-1.58.566-.338,0-.676-.08-1.024-.258-.845-.427-1.451-1.272-1.451-2.206v-9.723c0-.552-.448-1-1-1H10.465c-1.361,0-2.465-1.103-2.465-2.465v-15.245c0-1.356,1.099-2.455,2.455-2.455,0,0,23.725,0,28.91-.007.552,0,.993-.448.993-1v-9.726c0-.666.298-1.282.775-1.739.437-.417,1.043-.646,1.65-.646h.03c.576.02,1.14.21,1.62.606,5.913,4.885,17.491,14.95,23.294,19.965.784.677,1.183,1.62,1.183,2.574Z" style="fill: #dfe2e5;"/>
  <path d="M117.96,108.226l-34.523,11.493c-2.574.857-5.231-1.059-5.231-3.772V12.051c0-2.567,2.397-4.461,4.895-3.867l34.607,8.23c1.343.319,2.292,1.52,2.292,2.9v86.083c0,1.284-.822,2.423-2.04,2.829Z" style="fill: #dfe2e5; fill-rule: evenodd;"/>
</svg>

<?xml version="1.0" encoding="UTF-8" standalone="no"?>
<!DOCTYPE svg PUBLIC "-//W3C//DTD SVG 1.1//EN" "http://www.w3.org/Graphics/SVG/1.1/DTD/svg11.dtd">
<svg width="100%" height="100%" viewBox="0 0 128 128" version="1.1" xmlns="http://www.w3.org/2000/svg" xmlns:xlink="http://www.w3.org/1999/xlink" xml:space="preserve" xmlns:serif="http://www.serif.com/" style="fill-rule:evenodd;clip-rule:evenodd;stroke-linejoin:round;stroke-miterlimit:2;">
    <path d="M49.23,33.11L49.23,19.8C49.23,16.79 51.69,14.33 54.7,14.33L68.02,14.33C70.36,14.33 72.45,16.04 72.66,18.37C72.91,21.04 70.81,23.27 68.21,23.27L58.17,23.27L58.17,40.27C58.17,40.7 57.67,40.93 57.35,40.65L49.76,34.24C49.42,33.95 49.23,33.54 49.23,33.09L49.23,33.11Z" style="fill:white;fill-rule:nonzero;"/>
    <path d="M73.32,109.62C73.1,111.95 71.02,113.66 68.68,113.66L54.69,113.66C51.68,113.66 49.22,111.2 49.22,108.19L49.22,95.02C49.22,94.58 49.41,94.17 49.74,93.88L57.33,87.38C57.65,87.1 58.16,87.33 58.16,87.76L58.16,104.71L68.85,104.71C71.47,104.71 73.55,106.94 73.3,109.61L73.32,109.62Z" style="fill:white;fill-rule:nonzero;"/>
    <path d="M68.91,63.91C68.91,64.85 68.52,65.79 67.75,66.47L58.18,74.81L51.51,80.62L49.23,82.61L44.61,86.63C44.61,86.63 44.58,86.65 44.57,86.66C44.06,87.07 43.57,87.23 42.99,87.23C42.65,87.23 42.31,87.15 41.97,86.97C41.13,86.54 40.52,85.7 40.52,84.76L40.52,74.04L10.46,74.04C9.1,74.04 8,72.94 8,71.58L8,56.34C8,54.98 9.1,53.89 10.45,53.89L40.35,53.89L40.35,43.16C40.35,42.49 40.65,41.88 41.13,41.42C41.57,41 42.17,40.77 42.78,40.77L42.81,40.77C43.39,40.79 43.94,40.99 44.43,41.38L44.49,41.43L49.23,45.49L51.47,47.41L58.18,53.15L67.73,61.34C68.52,62.02 68.91,62.96 68.91,63.91Z" style="fill:white;fill-rule:nonzero;"/>
    <path d="M117.96,108.23L83.44,119.72C80.87,120.58 78.21,118.66 78.21,115.95L78.21,12.05C78.21,9.48 80.61,7.59 83.1,8.18L117.71,16.41C119.05,16.73 120,17.93 120,19.31L120,105.39C120,106.67 119.18,107.81 117.96,108.22L117.96,108.23Z" style="fill:white;"/>
</svg>
